icon/fa/hand-holding-hand.svg

<svg xmlns="http://www.w3.org/2000/svg" viewBox="0 0 512 512"><!--! Font Awesome Free 6.1.2 by @fontawesome - https://fontawesome.com License - https://fontawesome.com/license/free (Icons: CC BY 4.0, Fonts: SIL OFL 1.1, Code: MIT License) Copyright 2022 Fonticons, Inc.--><path d="m328.7 52.28 103 67.52c17.8 13.1 21.6 38.1 8.5 55.9-13.1 17.8-38.1 21.6-55.9 8.5l-87.7-57.1H191.1c-7.9 0-16 8.1-16 16 0 9.6 8.1 16 16 16h63.1c16 0 29.9 11.8 33.4 27.5 3.2 20-12.1 36.5-32.5 36.5h-112c-27 0-52.23-8.4-73.23-25.4l-46.5-38.6-8.27.9C7.25 160 0 152.7 0 143.1V47.99C0 39.25 7.25 32 15.1 32h251c22.9 0 44.8 7.19 62.6 20.28zM151.3 459.7 16.27 360.2c-17.779-13.1-21.575-38.1-8.467-55.9 13.127-17.8 38.137-21.6 55.937-8.5L183.4 384H304c8.8 0 16-7.2 16-16 0-8.7-7.2-16-16-16h-78.2c-16 0-30.8-10.9-33.4-26.6-3.2-20 12.1-37.4 31.6-37.4h128c27 0 53.1 9.3 74.1 26.3l46.5 37.7H496c8.7 0 16 7.3 16 16v96c0 8.8-7.3 16-16 16H213c-22.9 0-43.9-7.2-61.7-20.3z"/></svg>

<svg xmlns="http://www.w3.org/2000/svg" viewBox="0 0 512 512" height="1em" width="1em">
<!--! Font Awesome Free 6.1.2 by @fontawesome - https://fontawesome.com License - https://fontawesome.com/license/free (Icons: CC BY 4.0, Fonts: SIL OFL 1.1, Code: MIT License) Copyright 2022 Fonticons, Inc.-->
  <path d="M328.7 52.28L431.7 119.8C449.5 132.9 453.3 157.9 440.2 175.7C427.1 193.5 402.1 197.3 384.3 184.2L296.6 127.1H191.1C183.2 127.1 175.1 135.2 175.1 143.1C175.1 152.7 183.2 159.1 191.1 159.1H254.2C270.2 159.1 284.1 170.9 287.6 186.6C290.8 206.6 275.5 223.1 255.1 223.1H143.1C116.1 223.1 90.87 214.7 69.87 197.7L23.37 159.1L15.1 160C7.25 160 0 152.7 0 143.1V47.99C0 39.25 7.25 32 15.1 32H266.1C289 32 310.9 39.19 328.7 52.28L328.7 52.28zM151.3 459.7L16.27 360.2C-1.509 347.1-5.305 322.1 7.803 304.3C20.93 286.5 45.94 282.7 63.74 295.8L183.4 384H304C312.8 384 320 376.8 320 368C320 359.3 312.8 352 304 352H225.8C209.8 352 195 341.1 192.4 325.4C189.2 305.4 204.5 288 224 288H352C379 288 405.1 297.3 426.1 314.3L472.6 352L496 352C504.7 352 512 359.3 512 368V464C512 472.8 504.7 480 496 480H213C190.1 480 169.1 472.8 151.3 459.7V459.7z"/>
</svg>
